images/sora-pswap.svg

<svg height="250" viewBox="0 0 250 250" width="250" xmlns="http://www.w3.org/2000/svg"><path d="m250 125c0 69-56 125-125 125s-125-56-125-125 56-125 125-125 125 56 125 125zm0 0" fill="#f06"/><path d="m181.5 153.75c7.5 7.5 7.5 19.75 0 27.25s-19.75 7.5-27.25 0-23.125-50.375-23.125-50.375 42.875 15.625 50.375 23.125zm-112 0c-7.5 7.5-7.5 19.75 0 27.25s19.75 7.5 27.25 0 23.125-50.375 23.125-50.375-42.875 15.625-50.375 23.125zm112-57.5c7.5-7.5 7.5-19.75 0-27.25s-19.75-7.5-27.25 0-23.125 50.375-23.125 50.375 42.875-15.625 50.375-23.125zm-61.625 23.125s-15.625-42.875-23.125-50.375-19.75-7.5-27.25 0-7.5 19.75 0 27.25 50.375 23.125 50.375 23.125zm89.875-13.625c-10.625 0-73.25 19.25-73.25 19.25s62.625 19.25 73.25 19.25 19.25-8.625 19.25-19.25-8.625-19.25-19.25-19.25zm-169.5 0c-10.625 0-19.25 8.625-19.25 19.25s8.625 19.25 19.25 19.25 73.125-19.25 73.125-19.25-62.5-19.25-73.125-19.25zm65.5 104c0 10.625 8.625 19.25 19.25 19.25s19.25-8.625 19.25-19.25-19.25-73.25-19.25-73.25-19.25 62.625-19.25 73.25zm38.5-169.5c0-10.625-8.625-19.25-19.25-19.25s-19.25 8.625-19.25 19.25 19.25 73.125 19.25 73.125 19.25-62.5 19.25-73.125zm0 0" fill="#fff"/></svg>

<svg xmlns="http://www.w3.org/2000/svg" width="250" height="250"><path fill="#f06" d="M250 125c0 69-56 125-125 125S0 194 0 125 56 0 125 0s125 56 125 125zm0 0"/><path fill="#fff" d="M181.5 153.75c7.5 7.5 7.5 19.75 0 27.25s-19.75 7.5-27.25 0-23.125-50.375-23.125-50.375S174 146.25 181.5 153.75zm-112 0c-7.5 7.5-7.5 19.75 0 27.25s19.75 7.5 27.25 0 23.125-50.375 23.125-50.375S77 146.25 69.5 153.75zm112-57.5c7.5-7.5 7.5-19.75 0-27.25s-19.75-7.5-27.25 0-23.125 50.375-23.125 50.375S174 103.75 181.5 96.25zm-61.625 23.125S104.25 76.5 96.75 69 77 61.5 69.5 69s-7.5 19.75 0 27.25 50.375 23.125 50.375 23.125zm89.875-13.625c-10.625 0-73.25 19.25-73.25 19.25s62.625 19.25 73.25 19.25S229 135.625 229 125s-8.625-19.25-19.25-19.25zm-169.5 0C29.625 105.75 21 114.375 21 125s8.625 19.25 19.25 19.25S113.375 125 113.375 125s-62.5-19.25-73.125-19.25zm65.5 104c0 10.625 8.625 19.25 19.25 19.25s19.25-8.625 19.25-19.25S125 136.5 125 136.5s-19.25 62.625-19.25 73.25zm38.5-169.5C144.25 29.625 135.625 21 125 21s-19.25 8.625-19.25 19.25S125 113.375 125 113.375s19.25-62.5 19.25-73.125zm0 0"/></svg>
